X: 36
T:Da Sixereen
M:4/4
L:1/8
C:Tom Anderson
S:Shetland
R:Hornpipe
K:D
ag|"D"f>ed>B A2F2|"G"B>A G<F "A"E2 AG|"D"F<GA<d "E"^G>Be>d|"A"c2 A2 A2 a
g|
"D"f>ed>B A2F2|!"G"B>A G<F "A"E2 AG|"D"F<GA<d"A" A,>CE>G|"D"F2 D2 D2:||
fg|"D"a>A d<e f2 ef|"A"g<Ac<e g2 fe|!"Bm"d<fB<d "E"^G>Be>d|"A"c2 A2 A2 f
g|
"D"a>A d<e f2 ef|"A"g<Ac<e g2 fe|"D"fad<a "A"e<ac<a|!"D"f2 d2 d2 fg|
"D"a>A d<e f2 ef|"A"g<Ac<e g2 fe|"Bm"d<fB<d "E"^G>Be>d|"A"c2 A2 A2 ag|!
"D"f>ed>B A2F2|"G"B>AG<F "A"E2 AG|"D"F<GA<d"A" A,>CE>G|"D"F2 D2 D2||
